src/48x48/places/folder-gruvbox-material-purple-publicshare-open.svg

<?xml version="1.0" encoding="UTF-8"?>
<svg width="48" height="48" version="1" xmlns="http://www.w3.org/2000/svg">
 <rect x="4" y="17" width="40" height="26" rx="2" ry="2" opacity=".2"/>
 <path d="m4 34c0 1.108 0.892 2 2 2h36c1.108 0 2-0.892 2-2v-22c0-1.108-0.892-2-2-2h-18c-3 0-4-4-7-4h-11c-1.108 0-2 0.892-2 2" fill="#945e80"/>
 <rect x="4" y="19" width="40" height="22" rx="2" ry="2" opacity=".2"/>
 <rect x="6" y="13" width="36" height="16" rx="2" ry="2" fill="#E5DFC8"/>
 <rect x="4" y="20" width="40" height="22" rx="2" ry="2" fill="#d3869b"/>
 <path d="m6 6c-1.108 0-2 0.892-2 2v1c0-1.108 0.892-2 2-2h11c3 0 4 4 7 4h18c1.108 0 2 0.892 2 2v-1c0-1.108-0.892-2-2-2h-18c-3 0-4-4-7-4z" fill="#E5DFC8" opacity=".1"/>
 <path d="m20.545 27.452c-0.046 0.011-0.092 0.029-0.135 0.052-0.43 0.227-0.54 0.936-0.246 1.592 0.237 0.528 0.657 0.854 1.039 0.844 0.287 1.753 1.43 3.06 2.79 3.06h0.012c1.361 0 2.504-1.307 2.791-3.06 0.381 0.01 0.802-0.316 1.039-0.844 0.294-0.656 0.184-1.365-0.246-1.592-0.044-0.023-0.089-0.041-0.135-0.052-0.055-1.917-1.578-3.452-3.454-3.452-1.875 0-3.4 1.535-3.455 3.452zm5.849 5.548c-0.289 0.701-1.274 1.227-2.449 1.227-1.17 0-2.146-0.519-2.44-1.215-2.468 0.258-4.267 0.89-4.483 1.637-3e-3 7e-3 2e-3 0.016 0 0.023-7e-3 0.027-7e-3 0.051-0.01 0.078-1e-3 0.013-0.012 0.021-0.012 0.034v1.859c1e-3 0.197 0.157 0.357 0.351 0.357h13.299c0.194 0 0.35-0.16 0.35-0.357v-1.872c-2e-3 -0.043-0.021-0.08-0.033-0.123-0.221-0.756-2.059-1.396-4.572-1.648z" fill="#4A413F"/>
</svg>

<svg xmlns="http://www.w3.org/2000/svg" width="48" height="48" version="1">
 <rect style="opacity:0.2" width="40" height="26" x="4" y="17" rx="2" ry="2"/>
 <path style="fill:#945e80" d="M 4,34 C 4,35.108 4.892,36 6,36 H 42 C 43.108,36 44,35.108 44,34 V 12 C 44,10.892 43.108,10 42,10 H 24 C 21,10 20,6 17,6 H 6 C 4.892,6 4,6.892 4,8"/>
 <rect style="opacity:0.2" width="40" height="22" x="4" y="19" rx="2" ry="2"/>
 <rect style="fill:#E5DFC8" width="36" height="16" x="6" y="13" rx="2" ry="2"/>
 <rect style="fill:#d3869b" width="40" height="22" x="4" y="20" rx="2" ry="2"/>
 <path style="opacity:0.1;fill:#E5DFC8" d="M 6,6 C 4.892,6 4,6.892 4,8 V 9 C 4,7.892 4.892,7 6,7 H 17 C 20,7 21,11 24,11 H 42 C 43.108,11 44,11.892 44,13 V 12 C 44,10.892 43.108,10 42,10 H 24 C 21,10 20,6 17,6 Z"/>
 <path style="fill:#4A413F" d="M 20.545,27.452 C 20.499,27.463 20.453,27.481 20.41,27.504 19.98,27.731 19.87,28.44 20.164,29.096 20.401,29.624 20.821,29.95 21.203,29.94 21.49,31.693 22.633,33 23.993,33 H 24.005 C 25.366,33 26.509,31.693 26.796,29.94 27.177,29.95 27.598,29.624 27.835,29.096 28.129,28.44 28.019,27.731 27.589,27.504 27.545,27.481 27.5,27.463 27.454,27.452 27.399,25.535 25.876,24 24,24 22.125,24 20.6,25.535 20.545,27.452 Z M 26.394,33 C 26.105,33.701 25.12,34.227 23.945,34.227 22.775,34.227 21.799,33.708 21.505,33.012 19.037,33.27 17.238,33.902 17.022,34.649 17.019,34.656 17.024,34.665 17.022,34.672 17.015,34.699 17.015,34.723 17.012,34.75 17.011,34.763 17,34.771 17,34.784 V 34.793 36.643 C 17.001,36.84 17.157,37 17.351,37 H 30.65 C 30.844,37 31,36.84 31,36.643 V 34.793 34.771 C 30.998,34.728 30.979,34.691 30.967,34.648 30.746,33.892 28.908,33.252 26.395,33 Z"/>
</svg>
